X:1
T:Route 29
T:Route 29
T:Junichi Masuda
C:Junichi Masuda
%%score 1 2 3
L:1/8
Q:1/4=132
M:4/4
K:C
V:1 treble-8 nm="Acoustic Guitar" snm="Guit."
V:2 treble-8 nm="Electric Guitar" snm="El. Guit."
V:3 treble-8 nm="Acoustic Guitar" snm="Guit."
V:1
 z |: z!mf! ce c2 AcG- | GA_G C2 dBD- | Dce c2 AcA- | AACD GC C2 | Gcec EAcG | F/G/A C^F Dd B2 | %7
 Ecee EGcG | D/G/c BG E/F/G GF- | F z2 A2 c A2- | A z2 E2 GEG- | G z F2 AGFA- | A ^C2 E G2 E2 | %13
 z2 AG A c2 A- | A z GE G c2 G | dcBA G2 B2 | GEc E2 EcE | G2 cE CG G2 :| %18
V:2
!f! c/d/ |: eegg cdec | f/e/d BA Ga gc/d/ | eegg cdec | f/e/d dB cE Ec/d/ | eegg cdec | %6
 f/e/d BA Ga gc/d/ | eegg cdec | f/e/d dB c4 | AAcc fagf | GGcc egfe | FFAA dfed | ed^cd c^A=AG | %13
 AAcc fagf | GGcc egfe | fedf e2 d2 | cGeG cGeG | cGeG cc cc/d/ :| %18
V:3
 z |: z!p! .G,.C.E z .E.A,.E | .F, .C2 .A, .G,.C.B,.G, | .C.G,.C.E z .C.E.E | %4
 .F,.C.A,.B, .E.G, .G,2 | E,2 G,2 C2 G,2 | F,2 ^F,2 C2 B,2 | E,2 G,2 C2 G,E, | G,CB,G, CB,CD | %9
 C3 F,3 A,2 | C3 G,3 A,^A, | B,3 G,3 DF | A,3 E, E^CA,G, | A,3 C3 A,2 | G,3 C3 FE | F4 E z DB, | %16
 C3 G,3 C2 | E2 C2 .G,.C .C2 :| %18

